X: 1
T: Ellen O'Dwyer's
M: 12/8
L: 1/8
R: slide
K: Ador
|: gf | 
e2 A AGA e2 f g2 e | d2 G GFG BAB dcd |
e2 A AGA e2 f g2 e | d2 B g2 B A3 A :|
|: B/c/d |
e2 a aga aga age | d2 g gfg gfg ged |
e2 a aga aga age | d2 B g2 B A3 A :|
|: B/c/d |
e2 A AGA ede gfe | d2 G GFG BGB dBd |
e2 A A^GA ede gfe | dge dcB A3 A :|
|: eg |
aba age aga b2 a | gag ged ede g2 e |
aba age aga b2 a | gfg edB A3 A :|
